X:4569
T:Duntroon Castle
R:reel
O:Scottish
Z:id:hn-reel-600
M:C|
K:Amix
e2ce f2df|e2ce ~A3c|1 e2ce f2de|d2Bd ~G3d:|2 defd cdec|BcdB ~G3B||
eAec ABcd|efec ~A3c|eAec ABcA|BcdB ~G3B|
eAec ABcd|efec ABcA|defd cdec|BcdB ~G3B||
|:~A2cA cAcA|~A2cA ecAc|1 ~A2cA cAcA|BG~G2 BcdB:|2 defd cdec|BcdB ~G3B||
|:ea^ga eAcA|ea^ga ~e3c|1 ea^ga eAcA|BG~G2 Bcdf:|2 defd cdec|BcdB ~G3B||
